X:9905
T:Los Pollos (XA 03)
C:Tradicional
S:Música Tradicional Asturiana, (C) Tello & Tito. Asturies, 2001.
S:http://pagina.de/MusTradAst <telloytito@asturies.org>
A:Asturies
Z:Métodu de Xuacu Amieva 03
M:2/4
L:1/8
Q:1/4=120
W:Río Verde, Río Verde,
W:río de tantos colores,
W:cuando el río lleva tantos,
W:¿Qué será de mios amores?
W:
W:María sé que te llamas,
W:l'apellido no lo sé,
W:mañana voi por tu casa
W:y te lo preguntaré.
W:
W:El correo de L'Habana
W:no apara en las estaciones
W:porque lleva mucha prisa
W:con cartas de mios amores.
W:
W:Amor mío vienes tarde,
W:amor mío tarde vienes,
W:vienes de cumplir con otra
W:conmigo cumplido tienes.
K:C
|G3 G|GA GF|G2 G2|
 G3 G|FF FF|E2 E2|
 G3 G|FF FF|E2 E2|
F3 F|EE EE|D2 C2-|C4|
|CD EF|G2 GF|
G3 G|FF FF|E2 EF|
G3 G|FF FF|E2 DE|
F3 F|EE EE|D2 C2-|C4|


